Icons/fm_clean.svg

<svg viewBox="0 0 48 48"><defs><linearGradient id="linearGradient3764" x1="1" x2="47" gradientUnits="userSpaceOnUse" gradientTransform="translate(-48.000001,0.00221467)"><stop stop-color="#d52f2b" stop-opacity="1"/><stop offset="1" stop-color="#d83f3d" stop-opacity="1"/></linearGradient><clipPath id="clipPath-731856772"><g transform="translate(0,-1004.3622)"><rect rx="4" y="1005.36" x="1" height="46" width="46" fill="#1890d0"/></g></clipPath><clipPath id="clipPath-744586785"><g transform="translate(0,-1004.3622)"><rect rx="4" y="1005.36" x="1" height="46" width="46" fill="#1890d0"/></g></clipPath></defs><g><path d="m 1 43 l 0 0.25 c 0 2.216 1.784 4 4 4 l 38 0 c 2.216 0 4 -1.784 4 -4 l 0 -0.25 c 0 2.216 -1.784 4 -4 4 l -38 0 c -2.216 0 -4 -1.784 -4 -4 z m 0 0.5 l 0 0.5 c 0 2.216 1.784 4 4 4 l 38 0 c 2.216 0 4 -1.784 4 -4 l 0 -0.5 c 0 2.216 -1.784 4 -4 4 l -38 0 c -2.216 0 -4 -1.784 -4 -4 z" opacity="0.02"/><path d="m 1 43.25 l 0 0.25 c 0 2.216 1.784 4 4 4 l 38 0 c 2.216 0 4 -1.784 4 -4 l 0 -0.25 c 0 2.216 -1.784 4 -4 4 l -38 0 c -2.216 0 -4 -1.784 -4 -4 z" opacity="0.05"/><path d="m 1 43 l 0 0.25 c 0 2.216 1.784 4 4 4 l 38 0 c 2.216 0 4 -1.784 4 -4 l 0 -0.25 c 0 2.216 -1.784 4 -4 4 l -38 0 c -2.216 0 -4 -1.784 -4 -4 z" opacity="0.1"/></g><g><rect width="46" height="46" x="-47" y="1" rx="4" transform="matrix(0,-1,1,0,0,0)" fill="url(#linearGradient3764)" fill-opacity="1"/></g><g><g clip-path="url(#clipPath-731856772)"><g opacity="0.1"><!-- color: #d83f3d --><g><path d="m 13 15 l 22 0 l 0 9 l -22 0 m 0 -9" fill="#000"/><path d="m 16 16.25 c 0 -1.125 0 -2.25 1.273 -2.25 l 4.453 0 c 1.273 0 1.273 1.125 1.273 2.25 m -7 0" fill="#000"/><path d="m 15 16 l 17 0 l 0 12 l -17 0 m 0 -12" fill="#000"/><path d="m 16 17 l 18 0 l 0 4 l -18 0 m 0 -4" fill="#000"/><path d="m 17 18 l 16 0 l 0 12 l -16 0 m 0 -12" fill="#000"/><path d="m 11 19 l 26 0 l -2 14 l -22 0 m -2 -14" fill="#000"/></g></g></g></g><g><g clip-path="url(#clipPath-744586785)"><g transform="translate(0,-1)"><!-- color: #d83f3d --><g><path d="m 13 15 l 22 0 l 0 9 l -22 0 m 0 -9" fill="#ffb75a"/><path d="m 16 16.25 c 0 -1.125 0 -2.25 1.273 -2.25 l 4.453 0 c 1.273 0 1.273 1.125 1.273 2.25 m -7 0" fill="#ffb75a"/><path d="m 15 16 l 17 0 l 0 12 l -17 0 m 0 -12" fill="#d6d6d8"/><path d="m 16 17 l 18 0 l 0 4 l -18 0 m 0 -4" fill="#959a9d"/><path d="m 17 18 l 16 0 l 0 12 l -16 0 m 0 -12" fill="#f9f9f9"/><path d="m 11 19 l 26 0 l -2 14 l -22 0 m -2 -14" fill="#ffd86b"/></g></g></g></g><g><g transform="translate(0,-1004.3622)"><path d="m 1 1043.36 0 4 c 0 2.216 1.784 4 4 4 l 38 0 c 2.216 0 4 -1.784 4 -4 l 0 -4 c 0 2.216 -1.784 4 -4 4 l -38 0 c -2.216 0 -4 -1.784 -4 -4 z" opacity="0.1"/></g></g></svg>

<svg viewBox="0 0 48 48" xmlns:xlink="http://www.w3.org/1999/xlink">
 <defs>
  <linearGradient id="0">
   <stop stop-opacity="0"/>
   <stop offset="1"/>
  </linearGradient>
  <linearGradient xlink:href="#0" id="1" gradientUnits="userSpaceOnUse" gradientTransform="translate(4e-7,-48)" y1="47" x2="0" y2="1"/>
  <clipPath id="2">
   <g transform="translate(0,-1004.3622)">
    <rect rx="4" y="1005.36" x="1" height="46" width="46" fill="#1890d0"/>
   </g>
  </clipPath>
  <clipPath id="3">
   <g transform="translate(0,-1004.3622)">
    <rect rx="4" y="1005.36" x="1" height="46" width="46" fill="#1890d0"/>
   </g>
  </clipPath>
 </defs>
 <g>
  <g transform="translate(0,-1004.3622)">
   <path d="m 5,1006.3622 c -2.216,0 -4,1.784 -4,4 l 0,37.25 c 0,2.216 1.784,4 4,4 l 38,0 c 2.216,0 4,-1.784 4,-4 l 0,-37.25 c 0,-2.216 -1.784,-4 -4,-4 l -38,0 z m -4,41.5 0,0.5 c 0,2.216 1.784,4 4,4 l 38,0 c 2.216,0 4,-1.784 4,-4 l 0,-0.5 c 0,2.216 -1.784,4 -4,4 l -38,0 c -2.216,0 -4,-1.784 -4,-4 z" opacity="0.02"/>
   <path d="m 1,1047.6122 0,0.25 c 0,2.216 1.784,4 4,4 l 38,0 c 2.216,0 4,-1.784 4,-4 l 0,-0.25 c 0,2.216 -1.784,4 -4,4 l -38,0 c -2.216,0 -4,-1.784 -4,-4 z" opacity="0.05"/>
   <rect width="46" height="46" x="1" y="1005.61" rx="4" opacity="0.1"/>
  </g>
 </g>
 <g>
  <g transform="translate(0,-1004.3622)">
   <rect rx="4" y="1005.36" x="1" height="46" width="46" fill="#d83f3d"/>
  </g>
 </g>
 <g>
  <rect transform="scale(1,-1)" width="46" height="46" x="1" y="-46.998" rx="4" opacity="0.1" fill="url(#1)"/>
 </g>
 <g>
  <g clip-path="url(#2)">
   <g opacity="0.1">
    <g>
     <path d="M 13 15 L 35 15 L 35 24 L 13 24 Z M 13 15 "/>
     <path d="M 16 16.25 C 16 15.125 16 14 17.273438 14 L 21.726562 14 C 23 14 23 15.125 23 16.25 Z M 16 16.25 "/>
     <path d="M 15 16 L 32 16 L 32 28.003906 L 15 28.003906 Z M 15 16 "/>
     <path d="M 16 17 L 34 17 L 34 21 L 16 21 Z M 16 17 "/>
     <path d="M 17 18 L 33.003906 18 L 33.003906 30 L 17 30 Z M 17 18 "/>
     <path d="M 11 19 L 37 19 L 35 33 L 13 33 Z M 11 19 "/>
    </g>
   </g>
  </g>
 </g>
 <g>
  <g clip-path="url(#3)">
   <g transform="translate(0,-1)">
    <g>
     <path d="M 13 15 L 35 15 L 35 24 L 13 24 Z M 13 15 " fill="#ffb75a"/>
     <path d="M 16 16.25 C 16 15.125 16 14 17.273438 14 L 21.726562 14 C 23 14 23 15.125 23 16.25 Z M 16 16.25 " fill="#ffb75a"/>
     <path d="M 15 16 L 32 16 L 32 28.003906 L 15 28.003906 Z M 15 16 " fill="#d6d6d8"/>
     <path d="M 16 17 L 34 17 L 34 21 L 16 21 Z M 16 17 " fill="#959a9d"/>
     <path d="M 17 18 L 33.003906 18 L 33.003906 30 L 17 30 Z M 17 18 " fill="#f9f9f9"/>
     <path d="M 11 19 L 37 19 L 35 33 L 13 33 Z M 11 19 " fill="#ffd86b"/>
    </g>
   </g>
  </g>
 </g>
 <g>
  <g transform="translate(0,-1004.3622)">
   <path d="m 1,1043.3622 0,4 c 0,2.216 1.784,4 4,4 l 38,0 c 2.216,0 4,-1.784 4,-4 l 0,-4 c 0,2.216 -1.784,4 -4,4 l -38,0 c -2.216,0 -4,-1.784 -4,-4 z" opacity="0.1"/>
  </g>
 </g>
</svg>
